X: 142133
T: Narrow Gauge
C: Joe Liddy
Z: BB
S: "The Leitrim Fiddler" (Dublin 1981)
L: 1/8
M: 4/4
R: reel
Q: 1/4 = 180
K: Gdor
BGGF GFDC | DGGF GABc | dg g2 fgag | fdcB AFAc |
BGGF GFDC | DGGF GABc | dg g2 (3agf dc | BdcA BG G2 :|
B2 Bc dBfB | gdfd cBGA | B2 dB fBdf | gfdc BGGA |
B2 Bc dBfB | dcBc dg g2 | bg (3agf gfdc | BdcA BG G2 :|
%%%%%%%%%%%%%%%%%%%%%%%
